svgs/musixmatch.svg

<svg xmlns="http://www.w3.org/2000/svg" viewBox="0 0 192 192"><path d="M89.559 175.818c-15.374-1.377-29.498-6.755-41.637-15.852-7.832-5.87-15.165-13.964-20.253-22.353-6.03-9.943-9.598-20.323-11.172-32.502-.515-3.988-.515-14.214 0-18.202 1.572-12.164 5.024-22.238 11.085-32.352 5.53-9.228 13.962-18.191 22.939-24.382 9.142-6.306 19.618-10.708 30.389-12.77 8.531-1.633 18.266-1.845 26.697-.582 14.173 2.124 27.214 7.795 38.39 16.695 3.441 2.741 9.691 8.996 12.474 12.485 7.908 9.913 13.438 21.722 15.923 34.005 1.219 6.026 1.481 8.856 1.481 16.002 0 5.613-.061 6.952-.447 9.802-2.067 15.256-7.669 28.534-16.966 40.215-2.747 3.451-8.998 9.705-12.465 12.471-11.563 9.225-25.008 14.917-39.99 16.93-3.514.473-13.015.698-16.448.39Zm15.148-3.484c22.826-2.777 42.604-14.864 55.174-33.718 13.169-19.752 16.467-44.595 8.903-67.057-7.742-22.99-25.706-40.875-48.681-48.466-7.396-2.444-14.162-3.613-22.194-3.834-13.919-.384-27.945 3.139-40.015 10.052-8.518 4.878-16.313 11.636-22.397 19.419-8.875 11.352-14.266 24.77-15.903 39.579-.346 3.137-.346 12.265 0 15.402 1.989 17.99 9.654 34.146 22.12 46.616 12.864 12.87 29.453 20.538 48.197 22.281 2.867.266 11.701.103 14.796-.274ZM56.12 140.642c-1.804-.444-3.331-1.282-4.539-2.487-1.03-1.027-1.509-1.84-2.034-3.446-.301-.921-.324-4.189-.277-38.905l.051-37.899.641-1.301c2.345-4.757 8.639-6.473 13.44-3.662.504.295 1.016.632 1.138.749.123.117 2.777 2.143 5.899 4.503 3.122 2.359 5.721 4.346 5.776 4.414.055.069 1.899 1.486 4.099 3.149 2.199 1.664 4.448 3.372 4.998 3.798 2.002 1.547 10.257 7.804 10.476 7.939.126.078.997-.457 1.973-1.213 1.626-1.259 2.966-2.289 10.345-7.959 1.54-1.183 2.998-2.319 3.24-2.524.242-.205 1.772-1.396 3.399-2.647 1.628-1.25 4.444-3.422 6.258-4.825 7.941-6.142 8.362-6.417 10.573-6.927 3.801-.875 7.982.799 9.892 3.962 1.433 2.373 1.33-.773 1.33 40.507 0 33.271-.034 37.318-.317 38.411-.86 3.323-3.496 5.605-7.455 6.456-1.431.308-1.854.324-3.062.117-2.697-.463-3.12-.735-12.96-8.35a1396.165 1396.165 0 0 0-5.899-4.538 509.461 509.461 0 0 1-4.499-3.476c-6.545-5.132-12.478-9.675-12.634-9.675-.099 0-1.728 1.188-3.62 2.641-1.892 1.453-5.45 4.176-7.906 6.051-5.263 4.019-11.874 9.073-17.135 13.099-4.027 3.081-4.991 3.652-6.95 4.114-1.576.372-2.493.355-4.241-.076Z"/></svg>

<svg
    xmlns="http://www.w3.org/2000/svg"
    viewBox="0 0 192 192"
    id="vector">
    <g id="group">
        <path
            id="path_6"
            d="M 89.559 175.818 C 74.185 174.441 60.061 169.063 47.922 159.966 C 40.09 154.096 32.757 146.002 27.669 137.613 C 21.639 127.67 18.071 117.29 16.497 105.111 C 15.982 101.123 15.982 90.897 16.497 86.909 C 18.069 74.745 21.521 64.671 27.582 54.557 C 33.112 45.329 41.544 36.366 50.521 30.175 C 59.663 23.869 70.139 19.467 80.91 17.405 C 89.441 15.772 99.176 15.56 107.607 16.823 C 121.78 18.947 134.821 24.618 145.997 33.518 C 149.438 36.259 155.688 42.514 158.471 46.003 C 166.379 55.916 171.909 67.725 174.394 80.008 C 175.613 86.034 175.875 88.864 175.875 96.01 C 175.875 101.623 175.814 102.962 175.428 105.812 C 173.361 121.068 167.759 134.346 158.462 146.027 C 155.715 149.478 149.464 155.732 145.997 158.498 C 134.434 167.723 120.989 173.415 106.007 175.428 C 102.493 175.901 92.992 176.126 89.559 175.818 Z M 104.707 172.334 C 127.533 169.557 147.311 157.47 159.881 138.616 C 173.05 118.864 176.348 94.021 168.784 71.559 C 161.042 48.569 143.078 30.684 120.103 23.093 C 112.707 20.649 105.941 19.48 97.909 19.259 C 83.99 18.875 69.964 22.398 57.894 29.311 C 49.376 34.189 41.581 40.947 35.497 48.73 C 26.622 60.082 21.231 73.5 19.594 88.309 C 19.248 91.446 19.248 100.574 19.594 103.711 C 21.583 121.701 29.248 137.857 41.714 150.327 C 54.578 163.197 71.167 170.865 89.911 172.608 C 92.778 172.874 101.612 172.711 104.707 172.334 Z M 56.12 140.642 C 54.316 140.198 52.789 139.36 51.581 138.155 C 50.551 137.128 50.072 136.315 49.547 134.709 C 49.246 133.788 49.223 130.52 49.27 95.804 L 49.321 57.905 L 49.962 56.604 C 52.307 51.847 58.601 50.131 63.402 52.942 C 63.906 53.237 64.418 53.574 64.54 53.691 C 64.663 53.808 67.317 55.834 70.439 58.194 C 73.561 60.553 76.16 62.54 76.215 62.608 C 76.27 62.677 78.114 64.094 80.314 65.757 C 82.513 67.421 84.762 69.129 85.312 69.555 C 87.314 71.102 95.569 77.359 95.788 77.494 C 95.914 77.572 96.785 77.037 97.761 76.281 C 99.387 75.022 100.727 73.992 108.106 68.322 C 109.646 67.139 111.104 66.003 111.346 65.798 C 111.588 65.593 113.118 64.402 114.745 63.151 C 116.373 61.901 119.189 59.729 121.003 58.326 C 128.944 52.184 129.365 51.909 131.576 51.399 C 135.377 50.524 139.558 52.198 141.468 55.361 C 142.901 57.734 142.798 54.588 142.798 95.868 C 142.798 129.139 142.764 133.186 142.481 134.279 C 141.621 137.602 138.985 139.884 135.026 140.735 C 133.595 141.043 133.172 141.059 131.964 140.852 C 129.267 140.389 128.844 140.117 119.004 132.502 C 117.079 131.013 114.425 128.971 113.105 127.964 C 111.786 126.958 109.761 125.394 108.606 124.488 C 102.061 119.356 96.128 114.813 95.972 114.813 C 95.873 114.813 94.244 116.001 92.352 117.454 C 90.46 118.907 86.902 121.63 84.446 123.505 C 79.183 127.524 72.572 132.578 67.311 136.604 C 63.284 139.685 62.32 140.256 60.361 140.718 C 58.785 141.09 57.868 141.073 56.12 140.642 Z"
            fill="#000000"
            stroke-width="12"/>
    </g>
</svg>
